svg/format_float_right.svg

<svg xmlns="http://www.w3.org/2000/svg" viewBox="0 0 24 24"><path d="M15 7h6v6h-6zM3 3h18v2H3zm10 4v2H3V7zm-4 4v2H3v-2zm-6 4h14v2H3zm0 4h18v2H3z"/></svg>

<?xml version="1.0" encoding="UTF-8"?><!DOCTYPE svg PUBLIC "-//W3C//DTD SVG 1.1//EN" "http://www.w3.org/Graphics/SVG/1.1/DTD/svg11.dtd"><svg xmlns="http://www.w3.org/2000/svg" xmlns:xlink="http://www.w3.org/1999/xlink" version="1.1" id="mdi-format-float-right" width="24" height="24" viewBox="0 0 24 24"><path d="M15,7H21V13H15V7M3,3H21V5H3V3M13,7V9H3V7H13M9,11V13H3V11H9M3,15H17V17H3V15M3,19H21V21H3V19Z" /></svg>
